!!!!SEGMENT: pl-wtm--r-704-m--001-021_moniuszko-stanislaw--widma-zakonczenie.krn
!!!cenid: 18xx:3076
!!!COM: Moniuszko, Stanisław
!!!COM-rismID: pe30008351
!!!CDT: 1819/05/05-1872/06/04
!!!CNT: Polish
!!!OPR: Widma
!!!OTL: Zakończenie
!!!OMV: 021
!!!PDT: 1852
!!!AGN: Secular
!!!YEC: Copyright 2022 Narodowy Instytut Fryderyka Chopina (https://polishscores.org)
!!!YEM: License CC-BY-4.0 (https://creativecommons.org/licenses/by/4.0)
!!!SMS-siglum: PL-Wtm
!!!SMS-shelfmark: R 704/M
!!!SMS-shelfwork: 001-021 M
!!!SMS-variant:
!!!SMS-altvar:
!!!NIFC-rismSourceID: 1001093778
!!!NIFC-rismChildID: 1001093778
!!!NIFC-islandoraID:
!!!URL-pdf-islandora:
!!!URL-scan:
!!!IIIF:
!!!ONB-nifc: UWAGA: skany 0076-0078. Nie wpisywać tekstu rosyjskiego i samodzielnych dialogów poza krótkimi didaskaliami.
!!!AIN: 1 alto 1 bass 2 forte 1 soprn 1 tenor
!!!key: d
**kern	**kern	**dynam	**kern	**dynam	**kern	**text	**text	**dynam	**kern	**text	**dynam	**kern	**text	**text	**dynam
*part6	*part5	*	*part4	*	*part3	*	*	*	*part2	*	*	*part1	*	*	*
*staff6	*staff5	*	*staff4	*	*staff3	*	*	*	*staff2	*	*	*staff1	*	*	*
*I"[Forte-Piano.]	*I"[Forte-Piano.]	*	*I"	*	*I"	*	*	*	*I"	*	*	*I"[Chór!]	*	*	*
*I'	*I'	*	*I'	*	*I'	*	*	*	*I'	*	*	*I'	*	*	*
*Iforte	*Iforte	*	*Ibass	*	*Itenor	*	*	*	*Ialto	*	*	*Isoprn	*	*	*
*ICklav	*ICklav	*	*ICvox	*	*ICvox	*	*	*	*ICvox	*	*	*ICvox	*	*	*
*clefF4	*clefG2	*	*clefF4	*	*clefG2	*	*	*	*clefG2	*	*	*clefG2	*	*	*
*	*	*	*	*	*ITrd8c12	*	*	*	*	*	*	*	*	*	*
*k[b-]	*k[b-]	*	*k[b-]	*	*k[b-]	*	*	*	*k[b-]	*	*	*k[b-]	*	*	*
*d:	*d:	*	*d:	*	*d:	*	*	*	*d:	*	*	*d:	*	*	*
*M4/4	*M4/4	*	*M4/4	*	*M4/4	*	*	*	*M4/4	*	*	*M4/4	*	*	*
*met(c)	*met(c)	*	*met(c)	*	*met(c)	*	*	*	*met(c)	*	*	*met(c)	*	*	*
*	*	*	*	*	*ITrd8c12	*	*	*	*	*	*	*	*	*	*
=1	=1	=1	=1	=1	=1	=1	=1	=1	=1	=1	=1	=1	=1	=1	=1
!	!LO:TX:a:t=Cl&colon; Fag&colon; Cor.\nQuatuor	!	!	!	!	!	!	!	!	!	!	!LO:TX:t=P:problem:opis na marginesie w pionie	!	!	!
!	!	!LO:DY:rj	!	!	!	!	!	!	!	!	!	!LO:TX:t=Zakończenie:problem:podkreślone podwójną kreską na niebiesko	!	!	!
2BBn 2GG#X\	2d 2F</	pp	1ryy	.	1ryy	.	.	.	1ryy	.	.	1ryy	.	.	.
2BB [2GG#\	2d 2F</	.	.	.	.	.	.	.	.	.	.	.	.	.	.
=2	=2	=2	=2	=2	=2	=2	=2	=2	=2	=2	=2	=2	=2	=2	=2
*^	*	*	*	*	*	*	*	*	*	*	*	*	*	*	*
!LO:SIC:n=2:v:s=2BBn	!	!	!	!	!	!	!	!	!	!	!	!	!	!	!	!
2F 2BB- 2GG#X/]	2ryy	4.d/	.	1ryy	.	1ryy	.	.	.	1ryy	.	.	1ryy	.	.	.
.	.	8c/	.	.	.	.	.	.	.	.	.	.	.	.	.	.
2r	4ryy	4Bn/	.	.	.	.	.	.	.	.	.	.	.	.	.	.
.	(<4D/	4ryy	.	.	.	.	.	.	.	.	.	.	.	.	.	.
=3	=3	=3	=3	=3	=3	=3	=3	=3	=3	=3	=3	=3	=3	=3	=3	=3
2F/	1Bn 1GG)	2d/	.	1ryy	.	1ryy	.	.	.	1ryy	.	.	1ryy	.	.	.
!LO:N:vis=4.	!	!	!	!	!	!	!	!	!	!	!	!	!	!	!	!
4..E/	.	4..e/	.	.	.	.	.	.	.	.	.	.	.	.	.	.
16D/	.	16f/	.	.	.	.	.	.	.	.	.	.	.	.	.	.
=4	=4	=4	=4	=4	=4	=4	=4	=4	=4	=4	=4	=4	=4	=4	=4	=4
1Bn 1D;	1GG;	1f;	.	1ryy	.	1ryy	.	.	.	1ryy	.	.	1ryy	.	.	.
*v	*v	*	*	*	*	*	*	*	*	*	*	*	*	*	*	*
!!pagebreak:original
==5	==5	==5	==5	==5	==5	==5	==5	==5	==5	==5	==5	==5	==5	==5	==5
*k[b-]	*k[b-]	*	*k[b-]	*	*k[b-]	*	*	*	*k[b-]	*	*	*k[b-]	*	*	*
*M4/4	*M4/4	*	*M4/4	*	*M4/4	*	*	*	*M4/4	*	*	*M4/4	*	*	*
*met(c)	*met(c)	*	*met(c)	*	*met(c)	*	*	*	*met(c)	*	*	*met(c)	*	*	*
*	*tremolo	*	*	*	*	*	*	*	*	*	*	*	*	*	*
!	!LO:TX:a:t=Quatuor	!LO:DY:rj	!	!	!	!	!	!LO:DY:a	!	!	!	!LO:TX:b:B:t=Lento	!	!	!
1GG	32fLLL 32d 32Bn/	fp	2r	.	2r	.	.	.	1r	.	.	1r	.	.	.
.	32f 32d 32B/	.	.	.	.	.	.	.	.	.	.	.	.	.	.
.	32f 32d 32B/	.	.	.	.	.	.	.	.	.	.	.	.	.	.
.	32f 32d 32B/	.	.	.	.	.	.	.	.	.	.	.	.	.	.
.	32f 32d 32B/	.	.	.	.	.	.	.	.	.	.	.	.	.	.
.	32f 32d 32B/	.	.	.	.	.	.	.	.	.	.	.	.	.	.
.	32f 32d 32B/	.	.	.	.	.	.	.	.	.	.	.	.	.	.
.	32f 32d 32B/	.	.	.	.	.	.	.	.	.	.	.	.	.	.
.	32f 32d 32B/	.	.	.	.	.	.	.	.	.	.	.	.	.	.
.	32f 32d 32B/	.	.	.	.	.	.	.	.	.	.	.	.	.	.
.	32f 32d 32B/	.	.	.	.	.	.	.	.	.	.	.	.	.	.
.	32f 32d 32B/	.	.	.	.	.	.	.	.	.	.	.	.	.	.
.	32f 32d 32B/	.	.	.	.	.	.	.	.	.	.	.	.	.	.
.	32f 32d 32B/	.	.	.	.	.	.	.	.	.	.	.	.	.	.
.	32f 32d 32B/	.	.	.	.	.	.	.	.	.	.	.	.	.	.
.	32f 32d 32B/	.	.	.	.	.	.	.	.	.	.	.	.	.	.
.	32f 32d 32B/	.	4r	.	4r	.	.	.	.	.	.	.	.	.	.
.	32f 32d 32B/	.	.	.	.	.	.	.	.	.	.	.	.	.	.
.	32f 32d 32B/	.	.	.	.	.	.	.	.	.	.	.	.	.	.
.	32f 32d 32B/	.	.	.	.	.	.	.	.	.	.	.	.	.	.
.	32f 32d 32B/	.	.	.	.	.	.	.	.	.	.	.	.	.	.
.	32f 32d 32B/	.	.	.	.	.	.	.	.	.	.	.	.	.	.
.	32f 32d 32B/	.	.	.	.	.	.	.	.	.	.	.	.	.	.
.	32f 32d 32B/	.	.	.	.	.	.	.	.	.	.	.	.	.	.
*	*	*	*	*	*	*	*color:red	*	*	*	*	*	*	*	*
!	!LO:TX:a:t=Fag.	!	!	!LO:DY:a:rj	!	!	!	!LO:DY:rj	!	!	!	!	!	!	!
.	32f 32d 32B/	.	8.D\	pp	8.D/	Co	Che	pp	.	.	.	.	.	.	.
.	32f 32d 32B/	.	.	.	.	.	.	.	.	.	.	.	.	.	.
.	32f 32d 32B/	.	.	.	.	.	.	.	.	.	.	.	.	.	.
.	32f 32d 32B/	.	.	.	.	.	.	.	.	.	.	.	.	.	.
.	32f 32d 32B/	.	.	.	.	.	.	.	.	.	.	.	.	.	.
.	32f 32d 32B/	.	.	.	.	.	.	.	.	.	.	.	.	.	.
.	32f 32d 32B/	.	16E\	.	16E/	to	Sa-	.	.	.	.	.	.	.	.
.	32fJJJ 32d 32B/	.	.	.	.	.	.	.	.	.	.	.	.	.	.
=6	=6	=6	=6	=6	=6	=6	=6	=6	=6	=6	=6	=6	=6	=6	=6
2GG#X/	32fLLL 32d 32Bn/	.	2F\	.	2F/	bę-	-ră	.	2r	.	.	2r	.	.	.
.	32f 32d 32B/	.	.	.	.	.	.	.	.	.	.	.	.	.	.
.	32f 32d 32B/	.	.	.	.	.	.	.	.	.	.	.	.	.	.
.	32f 32d 32B/	.	.	.	.	.	.	.	.	.	.	.	.	.	.
.	32f 32d 32B/	.	.	.	.	.	.	.	.	.	.	.	.	.	.
.	32f 32d 32B/	.	.	.	.	.	.	.	.	.	.	.	.	.	.
.	32f 32d 32B/	.	.	.	.	.	.	.	.	.	.	.	.	.	.
.	32f 32d 32B/	.	.	.	.	.	.	.	.	.	.	.	.	.	.
.	32f 32d 32B/	.	.	.	.	.	.	.	.	.	.	.	.	.	.
.	32f 32d 32B/	.	.	.	.	.	.	.	.	.	.	.	.	.	.
.	32f 32d 32B/	.	.	.	.	.	.	.	.	.	.	.	.	.	.
.	32f 32d 32B/	.	.	.	.	.	.	.	.	.	.	.	.	.	.
.	32f 32d 32B/	.	.	.	.	.	.	.	.	.	.	.	.	.	.
.	32f 32d 32B/	.	.	.	.	.	.	.	.	.	.	.	.	.	.
.	32f 32d 32B/	.	.	.	.	.	.	.	.	.	.	.	.	.	.
.	32fJJJ 32d 32B/	.	.	.	.	.	.	.	.	.	.	.	.	.	.
2AA/	32fLLL 32d 32A/	.	8F\	.	8F/	-dzie	mai?..	.	4r	.	.	4r	.	.	.
.	32f 32d 32A/	.	.	.	.	.	.	.	.	.	.	.	.	.	.
.	32f 32d 32A/	.	.	.	.	.	.	.	.	.	.	.	.	.	.
.	32f 32d 32A/	.	.	.	.	.	.	.	.	.	.	.	.	.	.
.	32f 32d 32A/	.	8r	.	8r	.	.	.	.	.	.	.	.	.	.
.	32f 32d 32A/	.	.	.	.	.	.	.	.	.	.	.	.	.	.
.	32f 32d 32A/	.	.	.	.	.	.	.	.	.	.	.	.	.	.
.	32f 32d 32A/	.	.	.	.	.	.	.	.	.	.	.	.	.	.
*	*	*	*	*	*	*	*	*	*	*	*	*	*	*color:red	*
!	!LO:TX:a:t=Clar	!	!	!	!	!	!	!	!	!	!LO:DY:a:rj	!	!	!	!LO:DY:a:rj
.	32f 32d 32A/	.	4r	.	4r	.	.	.	8.d/	.	pp	8.d/	Co	Che	pp
.	32f 32d 32A/	.	.	.	.	.	.	.	.	.	.	.	.	.	.
.	32f 32d 32A/	.	.	.	.	.	.	.	.	.	.	.	.	.	.
.	32f 32d 32A/	.	.	.	.	.	.	.	.	.	.	.	.	.	.
.	32f 32d 32A/	.	.	.	.	.	.	.	.	.	.	.	.	.	.
.	32f 32d 32A/	.	.	.	.	.	.	.	.	.	.	.	.	.	.
.	32f 32d 32A/	.	.	.	.	.	.	.	16e/	.	.	16e/	to	sa-	.
.	32fJJJ 32d 32A/	.	.	.	.	.	.	.	.	.	.	.	.	.	.
=7	=7	=7	=7	=7	=7	=7	=7	=7	=7	=7	=7	=7	=7	=7	=7
2BB-/	32fLLL 32d 32A-X/	.	2r	.	2r	.	.	.	2f/	.	.	2f/	bę-	-rà...	.
.	32f 32d 32A-/	.	.	.	.	.	.	.	.	.	.	.	.	.	.
.	32f 32d 32A-/	.	.	.	.	.	.	.	.	.	.	.	.	.	.
.	32f 32d 32A-/	.	.	.	.	.	.	.	.	.	.	.	.	.	.
.	32f 32d 32A-/	.	.	.	.	.	.	.	.	.	.	.	.	.	.
.	32f 32d 32A-/	.	.	.	.	.	.	.	.	.	.	.	.	.	.
.	32f 32d 32A-/	.	.	.	.	.	.	.	.	.	.	.	.	.	.
.	32f 32d 32A-/	.	.	.	.	.	.	.	.	.	.	.	.	.	.
.	32f 32d 32A-/	.	.	.	.	.	.	.	.	.	.	.	.	.	.
.	32f 32d 32A-/	.	.	.	.	.	.	.	.	.	.	.	.	.	.
.	32f 32d 32A-/	.	.	.	.	.	.	.	.	.	.	.	.	.	.
.	32f 32d 32A-/	.	.	.	.	.	.	.	.	.	.	.	.	.	.
.	32f 32d 32A-/	.	.	.	.	.	.	.	.	.	.	.	.	.	.
.	32f 32d 32A-/	.	.	.	.	.	.	.	.	.	.	.	.	.	.
.	32f 32d 32A-/	.	.	.	.	.	.	.	.	.	.	.	.	.	.
.	32fJJJ 32d 32A-/	.	.	.	.	.	.	.	.	.	.	.	.	.	.
2BBn/	32gLLL 32d 32G/	.	4r	.	4r	.	.	.	8f/	.	.	8f/	-dzie	mai?..	.
.	32g 32d 32G/	.	.	.	.	.	.	.	.	.	.	.	.	.	.
.	32g 32d 32G/	.	.	.	.	.	.	.	.	.	.	.	.	.	.
.	32g 32d 32G/	.	.	.	.	.	.	.	.	.	.	.	.	.	.
.	32g 32d 32G/	.	.	.	.	.	.	.	8r	.	.	8r	.	.	.
.	32g 32d 32G/	.	.	.	.	.	.	.	.	.	.	.	.	.	.
.	32g 32d 32G/	.	.	.	.	.	.	.	.	.	.	.	.	.	.
.	32g 32d 32G/	.	.	.	.	.	.	.	.	.	.	.	.	.	.
.	32g 32d 32G/	.	8.G\	.	8.G/	Gdzie	Pas-	.	4r	.	.	4r	.	.	.
.	32g 32d 32G/	.	.	.	.	.	.	.	.	.	.	.	.	.	.
.	32g 32d 32G/	.	.	.	.	.	.	.	.	.	.	.	.	.	.
.	32g 32d 32G/	.	.	.	.	.	.	.	.	.	.	.	.	.	.
.	32g 32d 32G/	.	.	.	.	.	.	.	.	.	.	.	.	.	.
.	32g 32d 32G/	.	.	.	.	.	.	.	.	.	.	.	.	.	.
.	32g 32d 32G/	.	16F\	.	16F/	my	-so a	.	.	.	.	.	.	.	.
.	32gJJJ 32d 32G/	.	.	.	.	.	.	.	.	.	.	.	.	.	.
=8	=8	=8	=8	=8	=8	=8	=8	=8	=8	=8	=8	=8	=8	=8	=8
2C/	32eLLL 32G/	.	2E\	.	2E/	z nią	pas-	.	2r	.	.	2r	.	.	.
.	32e 32G/	.	.	.	.	.	.	.	.	.	.	.	.	.	.
.	32e 32G/	.	.	.	.	.	.	.	.	.	.	.	.	.	.
.	32e 32G/	.	.	.	.	.	.	.	.	.	.	.	.	.	.
.	32e 32G/	.	.	.	.	.	.	.	.	.	.	.	.	.	.
.	32e 32G/	.	.	.	.	.	.	.	.	.	.	.	.	.	.
.	32e 32G/	.	.	.	.	.	.	.	.	.	.	.	.	.	.
.	32e 32G/	.	.	.	.	.	.	.	.	.	.	.	.	.	.
.	32e 32G/	.	.	.	.	.	.	.	.	.	.	.	.	.	.
.	32e 32G/	.	.	.	.	.	.	.	.	.	.	.	.	.	.
.	32e 32G/	.	.	.	.	.	.	.	.	.	.	.	.	.	.
.	32e 32G/	.	.	.	.	.	.	.	.	.	.	.	.	.	.
.	32e 32G/	.	.	.	.	.	.	.	.	.	.	.	.	.	.
.	32e 32G/	.	.	.	.	.	.	.	.	.	.	.	.	.	.
.	32e 32G/	.	.	.	.	.	.	.	.	.	.	.	.	.	.
.	32eJJJ 32G/	.	.	.	.	.	.	.	.	.	.	.	.	.	.
2C#X/	32gLLL 32e 32B-/	.	4E\	.	4E/	On	-so	.	4r	.	.	4r	.	.	.
.	32g 32e 32B-/	.	.	.	.	.	.	.	.	.	.	.	.	.	.
.	32g 32e 32B-/	.	.	.	.	.	.	.	.	.	.	.	.	.	.
.	32g 32e 32B-/	.	.	.	.	.	.	.	.	.	.	.	.	.	.
.	32g 32e 32B-/	.	.	.	.	.	.	.	.	.	.	.	.	.	.
.	32g 32e 32B-/	.	.	.	.	.	.	.	.	.	.	.	.	.	.
.	32g 32e 32B-/	.	.	.	.	.	.	.	.	.	.	.	.	.	.
.	32g 32e 32B-/	.	.	.	.	.	.	.	.	.	.	.	.	.	.
.	32g 32e 32B-/	.	8.G\	.	8.G/	za	ei	.	8.g/	.	.	8.g/	za	Ei	.
.	32g 32e 32B-/	.	.	.	.	.	.	.	.	.	.	.	.	.	.
.	32g 32e 32B-/	.	.	.	.	.	.	.	.	.	.	.	.	.	.
.	32g 32e 32B-/	.	.	.	.	.	.	.	.	.	.	.	.	.	.
.	32g 32e 32B-/	.	.	.	.	.	.	.	.	.	.	.	.	.	.
.	32g 32e 32B-/	.	.	.	.	.	.	.	.	.	.	.	.	.	.
.	32g 32e 32B-/	.	16F\	.	16F/	nią	la	.	16f/	.	.	16f/	nią	la	.
.	32gJJJ 32e 32B-/	.	.	.	.	.	.	.	.	.	.	.	.	.	.
!!linebreak:original
=9	=9	=9	=9	=9	=9	=9	=9	=9	=9	=9	=9	=9	=9	=9	=9
2D\	32gLLL 32f 32Bn/	.	2F\	.	2F/	wszę-	se-	.	2f/	.	.	2f/	wszę-	se-	.
.	32g 32f 32B/	.	.	.	.	.	.	.	.	.	.	.	.	.	.
.	32g 32f 32B/	.	.	.	.	.	.	.	.	.	.	.	.	.	.
.	32g 32f 32B/	.	.	.	.	.	.	.	.	.	.	.	.	.	.
.	32g 32f 32B/	.	.	.	.	.	.	.	.	.	.	.	.	.	.
.	32g 32f 32B/	.	.	.	.	.	.	.	.	.	.	.	.	.	.
.	32g 32f 32B/	.	.	.	.	.	.	.	.	.	.	.	.	.	.
.	32g 32f 32B/	.	.	.	.	.	.	.	.	.	.	.	.	.	.
.	32g 32f 32B/	.	.	.	.	.	.	.	.	.	.	.	.	.	.
.	32g 32f 32B/	.	.	.	.	.	.	.	.	.	.	.	.	.	.
.	32g 32f 32B/	.	.	.	.	.	.	.	.	.	.	.	.	.	.
.	32g 32f 32B/	.	.	.	.	.	.	.	.	.	.	.	.	.	.
.	32g 32f 32B/	.	.	.	.	.	.	.	.	.	.	.	.	.	.
.	32g 32f 32B/	.	.	.	.	.	.	.	.	.	.	.	.	.	.
.	32g 32f 32B/	.	.	.	.	.	.	.	.	.	.	.	.	.	.
.	32gJJJ 32f 32B/	.	.	.	.	.	.	.	.	.	.	.	.	.	.
2E\	32gLLL 32c/	.	8E\	.	8E/	-dzie	-que.	.	8e/	.	.	8e/	-dzie..	-que.	.
.	32g 32c/	.	.	.	.	.	.	.	.	.	.	.	.	.	.
.	32g 32c/	.	.	.	.	.	.	.	.	.	.	.	.	.	.
.	32g 32c/	.	.	.	.	.	.	.	.	.	.	.	.	.	.
.	32g 32c/	.	8r	.	8r	.	.	.	8r	.	.	8r	.	.	.
.	32g 32c/	.	.	.	.	.	.	.	.	.	.	.	.	.	.
.	32g 32c/	.	.	.	.	.	.	.	.	.	.	.	.	.	.
.	32g 32c/	.	.	.	.	.	.	.	.	.	.	.	.	.	.
.	32g 32c/	.	8.F\	.	8.F/	Co	Che av-	.	4r	.	.	4r	.	.	.
.	32g 32c/	.	.	.	.	.	.	.	.	.	.	.	.	.	.
.	32g 32c/	.	.	.	.	.	.	.	.	.	.	.	.	.	.
.	32g 32c/	.	.	.	.	.	.	.	.	.	.	.	.	.	.
.	32g 32c/	.	.	.	.	.	.	.	.	.	.	.	.	.	.
.	32g 32c/	.	.	.	.	.	.	.	.	.	.	.	.	.	.
.	32g 32c/	.	16G\	.	16G/	to	-ver-	.	.	.	.	.	.	.	.
.	32gJJJ 32c/	.	.	.	.	.	.	.	.	.	.	.	.	.	.
=10	=10	=10	=10	=10	=10	=10	=10	=10	=10	=10	=10	=10	=10	=10	=10
2F\	32aLLL 32f 32A/	.	2A\	.	2A/	bę-	-ră	.	2r	.	.	2r	.	.	.
.	32a 32f 32A/	.	.	.	.	.	.	.	.	.	.	.	.	.	.
.	32a 32f 32A/	.	.	.	.	.	.	.	.	.	.	.	.	.	.
.	32a 32f 32A/	.	.	.	.	.	.	.	.	.	.	.	.	.	.
.	32a 32f 32A/	.	.	.	.	.	.	.	.	.	.	.	.	.	.
.	32a 32f 32A/	.	.	.	.	.	.	.	.	.	.	.	.	.	.
.	32a 32f 32A/	.	.	.	.	.	.	.	.	.	.	.	.	.	.
.	32a 32f 32A/	.	.	.	.	.	.	.	.	.	.	.	.	.	.
.	32a 32f 32A/	.	.	.	.	.	.	.	.	.	.	.	.	.	.
.	32a 32f 32A/	.	.	.	.	.	.	.	.	.	.	.	.	.	.
.	32a 32f 32A/	.	.	.	.	.	.	.	.	.	.	.	.	.	.
.	32a 32f 32A/	.	.	.	.	.	.	.	.	.	.	.	.	.	.
.	32a 32f 32A/	.	.	.	.	.	.	.	.	.	.	.	.	.	.
.	32a 32f 32A/	.	.	.	.	.	.	.	.	.	.	.	.	.	.
.	32a 32f 32A/	.	.	.	.	.	.	.	.	.	.	.	.	.	.
.	32aJJJ 32f 32A/	.	.	.	.	.	.	.	.	.	.	.	.	.	.
2G\	32aLLL 32f 32B-/	.	8A\	.	8A/	-dzie	-mai?..	.	4r	.	.	4r	.	.	.
.	32a 32f 32B-/	.	.	.	.	.	.	.	.	.	.	.	.	.	.
.	32a 32f 32B-/	.	.	.	.	.	.	.	.	.	.	.	.	.	.
.	32a 32f 32B-/	.	.	.	.	.	.	.	.	.	.	.	.	.	.
.	32a 32f 32B-/	.	8r	.	8r	.	.	.	.	.	.	.	.	.	.
.	32a 32f 32B-/	.	.	.	.	.	.	.	.	.	.	.	.	.	.
.	32a 32f 32B-/	.	.	.	.	.	.	.	.	.	.	.	.	.	.
.	32a 32f 32B-/	.	.	.	.	.	.	.	.	.	.	.	.	.	.
.	32a 32f 32B-/	.	4r	.	4r	.	.	.	8.f/	.	.	8.f/	Co	Che av-	.
.	32a 32f 32B-/	.	.	.	.	.	.	.	.	.	.	.	.	.	.
.	32a 32f 32B-/	.	.	.	.	.	.	.	.	.	.	.	.	.	.
.	32a 32f 32B-/	.	.	.	.	.	.	.	.	.	.	.	.	.	.
.	32a 32f 32B-/	.	.	.	.	.	.	.	.	.	.	.	.	.	.
.	32a 32f 32B-/	.	.	.	.	.	.	.	.	.	.	.	.	.	.
.	32a 32f 32B-/	.	.	.	.	.	.	.	16g/	.	.	16g/	to	-ver-	.
.	32aJJJ 32f 32B-/	.	.	.	.	.	.	.	.	.	.	.	.	.	.
=11	=11	=11	=11	=11	=11	=11	=11	=11	=11	=11	=11	=11	=11	=11	=11
2A\	32aLLL 32f 32c/	.	2r	.	2r	.	.	.	2a/	.	.	2a/	bę-	-ră	.
.	32a 32f 32c/	.	.	.	.	.	.	.	.	.	.	.	.	.	.
.	32a 32f 32c/	.	.	.	.	.	.	.	.	.	.	.	.	.	.
.	32a 32f 32c/	.	.	.	.	.	.	.	.	.	.	.	.	.	.
.	32a 32f 32c/	.	.	.	.	.	.	.	.	.	.	.	.	.	.
.	32a 32f 32c/	.	.	.	.	.	.	.	.	.	.	.	.	.	.
.	32a 32f 32c/	.	.	.	.	.	.	.	.	.	.	.	.	.	.
.	32a 32f 32c/	.	.	.	.	.	.	.	.	.	.	.	.	.	.
.	32a 32f 32c/	.	.	.	.	.	.	.	.	.	.	.	.	.	.
.	32a 32f 32c/	.	.	.	.	.	.	.	.	.	.	.	.	.	.
.	32a 32f 32c/	.	.	.	.	.	.	.	.	.	.	.	.	.	.
.	32a 32f 32c/	.	.	.	.	.	.	.	.	.	.	.	.	.	.
.	32a 32f 32c/	.	.	.	.	.	.	.	.	.	.	.	.	.	.
.	32a 32f 32c/	.	.	.	.	.	.	.	.	.	.	.	.	.	.
.	32a 32f 32c/	.	.	.	.	.	.	.	.	.	.	.	.	.	.
.	32aJJJ 32f 32c/	.	.	.	.	.	.	.	.	.	.	.	.	.	.
2B-\	32gLLL 32d/	.	4r	.	4r	.	.	.	8a/	.	.	8a/	-dzie	mai?..	.
.	32g 32d/	.	.	.	.	.	.	.	.	.	.	.	.	.	.
.	32g 32d/	.	.	.	.	.	.	.	.	.	.	.	.	.	.
.	32g 32d/	.	.	.	.	.	.	.	.	.	.	.	.	.	.
.	32g 32d/	.	.	.	.	.	.	.	8r	.	.	8r	.	.	.
.	32g 32d/	.	.	.	.	.	.	.	.	.	.	.	.	.	.
.	32g 32d/	.	.	.	.	.	.	.	.	.	.	.	.	.	.
.	32g 32d/	.	.	.	.	.	.	.	.	.	.	.	.	.	.
.	32g 32d/	.	8.B-\	.	8.B-/	Gdzie	Pas-	.	4r	.	.	4r	.	.	.
.	32g 32d/	.	.	.	.	.	.	.	.	.	.	.	.	.	.
.	32g 32d/	.	.	.	.	.	.	.	.	.	.	.	.	.	.
.	32g 32d/	.	.	.	.	.	.	.	.	.	.	.	.	.	.
.	32g 32d/	.	.	.	.	.	.	.	.	.	.	.	.	.	.
.	32g 32d/	.	.	.	.	.	.	.	.	.	.	.	.	.	.
.	32g 32d/	.	16A\	.	16A/	my	-so a	.	.	.	.	.	.	.	.
.	32gJJJ 32d/	.	.	.	.	.	.	.	.	.	.	.	.	.	.
=12	=12	=12	=12	=12	=12	=12	=12	=12	=12	=12	=12	=12	=12	=12	=12
2c\	32gLLL 32e/	.	[2G\	.	[>2G/	z nią	pas-	.	2r	.	.	2r	.	.	.
.	32g 32e/	.	.	.	.	.	.	.	.	.	.	.	.	.	.
.	32g 32e/	.	.	.	.	.	.	.	.	.	.	.	.	.	.
.	32g 32e/	.	.	.	.	.	.	.	.	.	.	.	.	.	.
.	32g 32e/	.	.	.	.	.	.	.	.	.	.	.	.	.	.
.	32g 32e/	.	.	.	.	.	.	.	.	.	.	.	.	.	.
.	32g 32e/	.	.	.	.	.	.	.	.	.	.	.	.	.	.
.	32g 32e/	.	.	.	.	.	.	.	.	.	.	.	.	.	.
.	32g 32e/	.	.	.	.	.	.	.	.	.	.	.	.	.	.
.	32g 32e/	.	.	.	.	.	.	.	.	.	.	.	.	.	.
.	32g 32e/	.	.	.	.	.	.	.	.	.	.	.	.	.	.
.	32g 32e/	.	.	.	.	.	.	.	.	.	.	.	.	.	.
.	32g 32e/	.	.	.	.	.	.	.	.	.	.	.	.	.	.
.	32g 32e/	.	.	.	.	.	.	.	.	.	.	.	.	.	.
.	32g 32e/	.	.	.	.	.	.	.	.	.	.	.	.	.	.
.	32gJJJ 32e/	.	.	.	.	.	.	.	.	.	.	.	.	.	.
4d-X\	32gLLL 32f/	.	8G\]	.	8G/]	.	.	.	4r	.	.	4r	.	.	.
.	32g 32f/	.	.	.	.	.	.	.	.	.	.	.	.	.	.
.	32g 32f/	.	.	.	.	.	.	.	.	.	.	.	.	.	.
.	32g 32f/	.	.	.	.	.	.	.	.	.	.	.	.	.	.
.	32g 32f/	.	8G\	.	8G/	On	-so	.	.	.	.	.	.	.	.
.	32g 32f/	.	.	.	.	.	.	.	.	.	.	.	.	.	.
.	32g 32f/	.	.	.	.	.	.	.	.	.	.	.	.	.	.
.	32g 32f/	.	.	.	.	.	.	.	.	.	.	.	.	.	.
4B-\	32g 32f/	.	8.B-\	.	8.B-/	za	ei	.	8.b-/	.	.	8.b-/	Za	Ei	.
.	32g 32f/	.	.	.	.	.	.	.	.	.	.	.	.	.	.
.	32g 32f/	.	.	.	.	.	.	.	.	.	.	.	.	.	.
.	32g 32f/	.	.	.	.	.	.	.	.	.	.	.	.	.	.
.	32g 32f/	.	.	.	.	.	.	.	.	.	.	.	.	.	.
.	32g 32f/	.	.	.	.	.	.	.	.	.	.	.	.	.	.
.	32g 32f/	.	16A\	.	16A/	nią	la	.	16a/	.	.	16a/	nią	la	.
.	32gJJJ 32f/	.	.	.	.	.	.	.	.	.	.	.	.	.	.
!!pagebreak:original
=13	=13	=13	=13	=13	=13	=13	=13	=13	=13	=13	=13	=13	=13	=13	=13
4c\	32gLLL 32e/	.	2G\	.	2G/	wszę-	se-	.	2g/	.	.	2g/	wszę-	se-	.
.	32g 32e/	.	.	.	.	.	.	.	.	.	.	.	.	.	.
.	32g 32e/	.	.	.	.	.	.	.	.	.	.	.	.	.	.
.	32g 32e/	.	.	.	.	.	.	.	.	.	.	.	.	.	.
.	32g 32e/	.	.	.	.	.	.	.	.	.	.	.	.	.	.
.	32g 32e/	.	.	.	.	.	.	.	.	.	.	.	.	.	.
.	32g 32e/	.	.	.	.	.	.	.	.	.	.	.	.	.	.
.	32g 32e/	.	.	.	.	.	.	.	.	.	.	.	.	.	.
4Bn\	32g 32e/	.	.	.	.	.	.	.	.	.	.	.	.	.	.
.	32g 32e/	.	.	.	.	.	.	.	.	.	.	.	.	.	.
.	32g 32e/	.	.	.	.	.	.	.	.	.	.	.	.	.	.
.	32g 32e/	.	.	.	.	.	.	.	.	.	.	.	.	.	.
.	32g 32e/	.	.	.	.	.	.	.	.	.	.	.	.	.	.
.	32g 32e/	.	.	.	.	.	.	.	.	.	.	.	.	.	.
.	32g 32e/	.	.	.	.	.	.	.	.	.	.	.	.	.	.
.	32gJJJ 32e/	.	.	.	.	.	.	.	.	.	.	.	.	.	.
4B-X\	32ccLLL 32g 32e/	.	8G\	.	8G/	-dzie	-que	.	8g/	.	.	8g/	-dzie	-que.	.
.	32cc 32g 32e/	.	.	.	.	.	.	.	.	.	.	.	.	.	.
.	32cc 32g 32e/	.	.	.	.	.	.	.	.	.	.	.	.	.	.
.	32cc 32g 32e/	.	.	.	.	.	.	.	.	.	.	.	.	.	.
.	32cc 32g 32e/	.	8r	.	8r	.	.	.	8r	.	.	8r	.	.	.
.	32cc 32g 32e/	.	.	.	.	.	.	.	.	.	.	.	.	.	.
.	32cc 32g 32e/	.	.	.	.	.	.	.	.	.	.	.	.	.	.
.	32cc 32g 32e/	.	.	.	.	.	.	.	.	.	.	.	.	.	.
!	!LO:TX:a:t=Flauti	!	!	!LO:DY:a:rj	!	!	!	!LO:DY:a:rj	!	!	!LO:DY:a:rj	!	!	!	!LO:DY:a:rj
8A\L	32cc 32g 32e/	.	8.A\	mf	8.A/	.	.	mf	8.a/	.	mf	8.a/	Co	Che	mf
.	32cc 32g 32e/	.	.	.	.	.	.	.	.	.	.	.	.	.	.
.	32cc 32g 32e/	.	.	.	.	.	.	.	.	.	.	.	.	.	.
.	32cc 32g 32e/	.	.	.	.	.	.	.	.	.	.	.	.	.	.
8G\J	32cc 32g 32e/	.	.	.	.	.	.	.	.	.	.	.	.	.	.
.	32cc 32g 32e/	.	.	.	.	.	.	.	.	.	.	.	.	.	.
.	32cc 32g 32e/	.	16B-\	.	16B-/	.	.	.	16b-/	.	.	16b-/	to	sa-	.
.	32ccJJJ 32g 32e/	.	.	.	.	.	.	.	.	.	.	.	.	.	.
=14	=14	=14	=14	=14	=14	=14	=14	=14	=14	=14	=14	=14	=14	=14	=14
!	!	!LO:DY:rj	!	!	!	!	!	!	!	!	!	!	!	!	!
2F#X 2FF#X/	32aLLL 32e-X 32c/	sf >	2c\	.	2c\	.	.	.	2cc\	.	.	2cc\	bę-	-rà..	.
.	32a 32e- 32c/	.	.	.	.	.	.	.	.	.	.	.	.	.	.
.	32a 32e- 32c/	.	.	.	.	.	.	.	.	.	.	.	.	.	.
.	32a 32e- 32c/	.	.	.	.	.	.	.	.	.	.	.	.	.	.
.	32a 32e- 32c/	.	.	.	.	.	.	.	.	.	.	.	.	.	.
.	32a 32e- 32c/	.	.	.	.	.	.	.	.	.	.	.	.	.	.
.	32a 32e- 32c/	.	.	.	.	.	.	.	.	.	.	.	.	.	.
.	32a 32e- 32c/	.	.	.	.	.	.	.	.	.	.	.	.	.	.
.	32a 32e- 32c/	.	.	.	.	.	.	.	.	.	.	.	.	.	.
.	32a 32e- 32c/	.	.	.	.	.	.	.	.	.	.	.	.	.	.
.	32a 32e- 32c/	.	.	.	.	.	.	.	.	.	.	.	.	.	.
.	32a 32e- 32c/	.	.	.	.	.	.	.	.	.	.	.	.	.	.
.	32a 32e- 32c/	.	.	.	.	.	.	.	.	.	.	.	.	.	.
.	32a 32e- 32c/	.	.	.	.	.	.	.	.	.	.	.	.	.	.
.	32a 32e- 32c/	.	.	.	.	.	.	.	.	.	.	.	.	.	.
.	32aJJJ 32e- 32c/	.	.	.	.	.	.	.	.	.	.	.	.	.	.
2G 2GG/	32b-LLL 32e- 32B-/	.	8B-\	.	8B-\	.	.	.	8b-\	.	.	8b-\	-dzie	mai?	.
.	32b- 32e- 32B-/	.	.	.	.	.	.	.	.	.	.	.	.	.	.
.	32b- 32e- 32B-/	.	.	.	.	.	.	.	.	.	.	.	.	.	.
.	32b- 32e- 32B-/	.	.	.	.	.	.	.	.	.	.	.	.	.	.
.	32b- 32e- 32B-/	.	8r	.	8r	.	.	.	8r	.	.	8r	.	.	.
.	32b- 32e- 32B-/	.	.	.	.	.	.	.	.	.	.	.	.	.	.
.	32b- 32e- 32B-/	.	.	.	.	.	.	.	.	.	.	.	.	.	.
.	32b-JJJ 32e- 32B-/	.	.	.	.	.	.	.	.	.	.	.	.	.	.
!	!	!	!	!LO:DY:a:rj	!	!	!	!LO:DY:a:rj	!	!	!LO:DY:a:rj	!	!	!	!LO:DY:a:rj
.	32g/LLL	.	8.G\	p	8.G/	.	.	p	8.g/	.	p	8.g/	Co	Che av-	p
.	32g/	.	.	.	.	.	.	.	.	.	.	.	.	.	.
.	32g/	]	.	.	.	.	.	.	.	.	.	.	.	.	.
.	32g/	.	.	.	.	.	.	.	.	.	.	.	.	.	.
.	32e-/	.	.	.	.	.	.	.	.	.	.	.	.	.	.
.	32e-/	.	.	.	.	.	.	.	.	.	.	.	.	.	.
.	32e-/	.	16B-\	.	16B-/	.	.	.	16b-/	.	.	16b-/	to	-ver-	.
.	32e-/JJJ	.	.	.	.	.	.	.	.	.	.	.	.	.	.
=15	=15	=15	=15	=15	=15	=15	=15	=15	=15	=15	=15	=15	=15	=15	=15
!	!LO:TX:a:t=Cor.	!	!	!	!	!	!	!	!	!	!	!	!	!	!
2AA\	32dLLL 32A</	.	2A\	.	2A/	.	.	.	2a/	.	.	2a/	bę-	-ră	.
.	32d 32A/	.	.	.	.	.	.	.	.	.	.	.	.	.	.
.	32d 32A/	.	.	.	.	.	.	.	.	.	.	.	.	.	.
.	32d 32A/	.	.	.	.	.	.	.	.	.	.	.	.	.	.
.	32d 32A/	.	.	.	.	.	.	.	.	.	.	.	.	.	.
.	32d 32A/	.	.	.	.	.	.	.	.	.	.	.	.	.	.
.	32d 32A/	.	.	.	.	.	.	.	.	.	.	.	.	.	.
.	32dJJJ 32A/	.	.	.	.	.	.	.	.	.	.	.	.	.	.
.	32eLLL 32c#X 32A</	.	.	.	.	.	.	.	.	.	.	.	.	.	.
.	32e 32c# 32A</	.	.	.	.	.	.	.	.	.	.	.	.	.	.
.	32e 32c# 32A</	.	.	.	.	.	.	.	.	.	.	.	.	.	.
.	32e 32c# 32A</	.	.	.	.	.	.	.	.	.	.	.	.	.	.
.	32e 32c# 32A</	.	.	.	.	.	.	.	.	.	.	.	.	.	.
.	32e 32c# 32A</	.	.	.	.	.	.	.	.	.	.	.	.	.	.
.	32e 32c# 32A</	.	.	.	.	.	.	.	.	.	.	.	.	.	.
.	32eJJJ 32c# 32A</	.	.	.	.	.	.	.	.	.	.	.	.	.	.
2D 2DD\	32fLLL 32d 32A</	.	8F\	.	8F/	.	.	.	8f/	.	.	8f/	-dzie	mai?	.
.	32f 32d 32A/	.	.	.	.	.	.	.	.	.	.	.	.	.	.
.	32f 32d 32A/	.	.	.	.	.	.	.	.	.	.	.	.	.	.
.	32f 32d 32A/	.	.	.	.	.	.	.	.	.	.	.	.	.	.
.	32f 32d 32A/	.	8r	.	8r	.	.	.	8r	.	.	8r	.	.	.
.	32f 32d 32A/	.	.	.	.	.	.	.	.	.	.	.	.	.	.
.	32f 32d 32A/	.	.	.	.	.	.	.	.	.	.	.	.	.	.
.	32f 32d 32A/	.	.	.	.	.	.	.	.	.	.	.	.	.	.
.	32f 32d 32A/	.	8F\	.	8F/	.	.	.	8f/	.	.	8f/	Gdzie	Pas-	.
.	32f 32d 32A/	.	.	.	.	.	.	.	.	.	.	.	.	.	.
.	32f 32d 32A/	.	.	.	.	.	.	.	.	.	.	.	.	.	.
.	32f 32d 32A/	.	.	.	.	.	.	.	.	.	.	.	.	.	.
.	32f 32d 32A/	.	8A\	.	8A/	.	.	.	8a/	.	.	8a/	my	-so a	.
.	32f 32d 32A/	.	.	.	.	.	.	.	.	.	.	.	.	.	.
.	32f 32d 32A/	.	.	.	.	.	.	.	.	.	.	.	.	.	.
.	32fJJJ 32d 32A/	.	.	.	.	.	.	.	.	.	.	.	.	.	.
=16	=16	=16	=16	=16	=16	=16	=16	=16	=16	=16	=16	=16	=16	=16	=16
*^	*	*	*	*	*	*	*	*	*	*	*	*	*	*	*
*	*	*Xtremolo	*	*	*	*	*	*	*	*	*	*	*	*	*	*
2Bn/	2GG\	16fLL 16d/	.	4A\	.	4A/	.	.	.	4a/	.	.	4a/	z nią	pas-	.
.	.	16f 16d/	.	.	.	.	.	.	.	.	.	.	.	.	.	.
.	.	16fJJ 16d/	.	.	.	.	.	.	.	.	.	.	.	.	.	.
.	.	16r	.	.	.	.	.	.	.	.	.	.	.	.	.	.
*	*	*rep	*	*	*	*	*	*	*	*	*	*	*	*	*	*
.	.	16fLL 16d/	.	4G\	.	4E/	.	.	.	4g/	.	.	4g/	On	-so	.
.	.	16f 16d/	.	.	.	.	.	.	.	.	.	.	.	.	.	.
.	.	16fJJ 16d/	.	.	.	.	.	.	.	.	.	.	.	.	.	.
.	.	16r	.	.	.	.	.	.	.	.	.	.	.	.	.	.
*	*	*Xrep	*	*	*	*	*	*	*	*	*	*	*	*	*	*
*	*	*rep	*	*	*	*	*	*	*	*	*	*	*	*	*	*
2B-X/	2GG#X\	16fLL 16d/	.	4C#X\	.	4C#X/	.	.	.	4c#X/	.	.	4c#X/	za	ei	.
.	.	16f 16d/	.	.	.	.	.	.	.	.	.	.	.	.	.	.
.	.	16fJJ 16d/	.	.	.	.	.	.	.	.	.	.	.	.	.	.
.	.	16r	.	.	.	.	.	.	.	.	.	.	.	.	.	.
*	*	*Xrep	*	*	*	*	*	*	*	*	*	*	*	*	*	*
*	*	*rep	*	*	*	*	*	*	*	*	*	*	*	*	*	*
.	.	16fLL 16d/	.	4D\	.	4D/	.	.	.	4d/	.	.	4d/	nią	la	.
.	.	16f 16d/	.	.	.	.	.	.	.	.	.	.	.	.	.	.
.	.	16fJJ 16d/	.	.	.	.	.	.	.	.	.	.	.	.	.	.
.	.	16r	.	.	.	.	.	.	.	.	.	.	.	.	.	.
!!linebreak:original
*	*	*Xrep	*	*	*	*	*	*	*	*	*	*	*	*	*	*
=17	=17	=17	=17	=17	=17	=17	=17	=17	=17	=17	=17	=17	=17	=17	=17	=17
*	*	*	*	*	*	*	*	*	*	*	*color:red	*	*	*	*	*
4A/	4AA\	16fLL 16c/	.	2F\	.	2F/	.	.	.	2f/	se-	.	2f/	wszę-	.	.
.	.	16f 16c/	.	.	.	.	.	.	.	.	.	.	.	.	.	.
.	.	16fJJ 16c/	.	.	.	.	.	.	.	.	.	.	.	.	.	.
.	.	16r	.	.	.	.	.	.	.	.	.	.	.	.	.	.
!LO:TX:a:t=Timp.	!	!LO:TX:a:t=Tromba	!	!	!	!	!	!	!	!	!	!	!	!	!	!
4F/	4BB-\	16ddLL 16f 16d/	.	.	.	.	.	.	.	.	.	.	.	.	.	.
.	.	16dd 16f 16d/	.	.	.	.	.	.	.	.	.	.	.	.	.	.
.	.	16ddJJ 16f 16d/	.	.	.	.	.	.	.	.	.	.	.	.	.	.
.	.	16r	.	.	.	.	.	.	.	.	.	.	.	.	.	.
4A/	4AA\	16fLL 16c/	.	8F\	.	8F/	.	.	.	8f/	-que,	.	8f/	-dzie	.	.
.	.	16f 16c/	.	.	.	.	.	.	.	.	.	.	.	.	.	.
.	.	16fJJ 16c/	.	8r	.	8r	.	.	.	8r	.	.	8r	.	.	.
.	.	16r	.	.	.	.	.	.	.	.	.	.	.	.	.	.
4Bn/	4AA-X\	16fLL 16d/	.	8F\	.	8F/	.	.	.	8f/	pas-	.	8f/	Gdzie	.	.
.	.	16f 16d/	.	.	.	.	.	.	.	.	.	.	.	.	.	.
.	.	16fJJ 16d/	.	8A\	.	8A/	.	.	.	8a/	-so a	.	8a/	my	.	.
.	.	16r	.	.	.	.	.	.	.	.	.	.	.	.	.	.
=18	=18	=18	=18	=18	=18	=18	=18	=18	=18	=18	=18	=18	=18	=18	=18	=18
2Bn/	2GG\	16fLL 16d/	.	4A\	.	4A/	.	.	.	4a/	pas-	.	4a/	z nią	.	.
.	.	16f 16d/	.	.	.	.	.	.	.	.	.	.	.	.	.	.
.	.	16fJJ 16d/	.	.	.	.	.	.	.	.	.	.	.	.	.	.
.	.	16r	.	.	.	.	.	.	.	.	.	.	.	.	.	.
.	.	16ffLL 16dd\	.	4G\	.	4G/	.	.	.	4g/	-so	.	4g/	on	.	.
.	.	16ff 16dd\	.	.	.	.	.	.	.	.	.	.	.	.	.	.
.	.	16ffJJ 16dd\	.	.	.	.	.	.	.	.	.	.	.	.	.	.
.	.	16r	.	.	.	.	.	.	.	.	.	.	.	.	.	.
2B-X/	2GG#X\	16fLL 16d/	.	4C#X/	.	4C#X/	.	.	.	4c#X/	ei	.	4c#X/	za	.	.
.	.	16f 16d/	.	.	.	.	.	.	.	.	.	.	.	.	.	.
.	.	16fJJ 16d/	.	.	.	.	.	.	.	.	.	.	.	.	.	.
.	.	16r	.	.	.	.	.	.	.	.	.	.	.	.	.	.
.	.	16ddLL 16f/	.	4D\	.	4D/	.	.	.	4d/	la	.	4d/	nią	.	.
.	.	16dd 16f/	.	.	.	.	.	.	.	.	.	.	.	.	.	.
.	.	16ddJJ 16f/	.	.	.	.	.	.	.	.	.	.	.	.	.	.
.	.	16r	.	.	.	.	.	.	.	.	.	.	.	.	.	.
=19	=19	=19	=19	=19	=19	=19	=19	=19	=19	=19	=19	=19	=19	=19	=19	=19
4A/	4AA\	16fLL 16d/	.	2F\	.	2F/	.	.	.	2f/	se-	.	2f/	wszę-	.	.
.	.	16f 16d/	.	.	.	.	.	.	.	.	.	.	.	.	.	.
.	.	16fJJ 16d/	.	.	.	.	.	.	.	.	.	.	.	.	.	.
.	.	16r	.	.	.	.	.	.	.	.	.	.	.	.	.	.
*	*	*rep	*	*	*	*	*	*	*	*	*	*	*	*	*	*
4A-X/	4C\	16fLL 16d/	.	.	.	.	.	.	.	.	.	.	.	.	.	.
.	.	16f 16d/	.	.	.	.	.	.	.	.	.	.	.	.	.	.
.	.	16fJJ 16d/	.	.	.	.	.	.	.	.	.	.	.	.	.	.
.	.	16r	.	.	.	.	.	.	.	.	.	.	.	.	.	.
*	*	*Xrep	*	*	*	*	*	*	*	*	*	*	*	*	*	*
*	*	*rep	*	*	*	*	*	*	*	*	*	*	*	*	*	*
4G/	4BBn\	16fLL 16d/	.	8F\	.	8F/	.	.	.	8f/	-que.	.	8f/	-dzie	.	.
.	.	16f 16d/	.	.	.	.	.	.	.	.	.	.	.	.	.	.
.	.	16fJJ 16d/	.	8r	.	8r	.	.	.	8r	.	.	8r	.	.	.
.	.	16r	.	.	.	.	.	.	.	.	.	.	.	.	.	.
*	*	*Xrep	*	*	*	*	*	*	*	*	*	*	*	*	*	*
*	*	*rep	*	*	*	*	*	*	*	*	*	*	*	*	*	*
4G#X/	4BB-X\	16fLL 16d/	.	8D\	.	8d\	.	.	.	8d/	ah	.	8dd\	A!	.	.
.	.	16f 16d/	.	.	.	.	.	.	.	.	.	.	.	.	.	.
.	.	16fJJ 16d/	.	8r	.	8r	.	.	.	8r	.	.	8r	.	.	.
.	.	16r	.	.	.	.	.	.	.	.	.	.	.	.	.	.
*	*	*Xrep	*	*	*	*	*	*	*	*	*	*	*	*	*	*
*v	*v	*	*	*	*	*	*	*	*	*	*	*	*	*	*	*
=20	=20	=20	=20	=20	=20	=20	=20	=20	=20	=20	=20	=20	=20	=20	=20
!	!	!	!	!	!LO:TX:t=P:problem:diminuendolike accent	!	!	!	!	!	!	!LO:TX:t=P:problem:diminuendolike accent	!	!	!
4A 4AA\	8f 8d/	.	2F^\	.	2F^>/	.	.	.	2f^>/	va!...	.	2f^>/	kysz!	.	.
.	4f 4d/	.	.	.	.	.	.	.	.	.	.	.	.	.	.
4B- 4BB-^\	.	.	.	.	.	.	.	.	.	.	.	.	.	.	.
.	4f 4d/	.	.	.	.	.	.	.	.	.	.	.	.	.	.
4A 4AA\	.	.	4r	.	4r	.	.	.	4r	.	.	4r	.	.	.
!	!LO:TX:a:t=Ob.	!	!	!	!	!	!	!	!	!	!	!	!	!	!
.	4f 4d/	.	.	.	.	.	.	.	.	.	.	.	.	.	.
4G#X 4GG#X\	.	.	8D\	.	8d\	.	.	.	8d/	ah	.	8dd\	A!	.	.
.	8f 8d/	.	8r	.	8r	.	.	.	8r	.	.	8r	.	.	.
!!pagebreak:original
=21	=21	=21	=21	=21	=21	=21	=21	=21	=21	=21	=21	=21	=21	=21	=21
(8AL 8AA\	8f 8d/	.	4F^\	.	4F^/	.	.	.	4f^/	và!	.	4f^/	kysz!	.	.
8B- 8BB-\	4f 4d/	.	.	.	.	.	.	.	.	.	.	.	.	.	.
!LO:TX:t=P:problem:8G 8GG\ poprawione na 8A 8AA\	!	!	!	!	!	!	!	!	!	!	!	!	!	!	!
8A 8AA\	.	.	4r	.	4r	.	.	.	4r	.	.	4r	.	.	.
!LO:TX:t=P:problem:8F# 8FF# poprawione na 8G# 8GG#	!	!	!	!	!	!	!	!	!	!	!	!	!	!	!
8G#XJ 8GG#X\)	4f 4d/	.	.	.	.	.	.	.	.	.	.	.	.	.	.
(8AL 8AA\	.	.	4..D\	.	4..D/	.	.	.	4..d/	Che	.	4..d/	Co	.	.
8B- 8BB-\	8fL 8d/	.	.	.	.	.	.	.	.	.	.	.	.	.	.
8A 8AA\	8f 8d/	.	.	.	.	.	.	.	.	.	.	.	.	.	.
8G#J 8GG#\)	8fJ 8d/	.	.	.	.	.	.	.	.	.	.	.	.	.	.
.	.	.	16D\	.	16D/	.	.	.	16d/	sa-	.	16d/	to	.	.
=22	=22	=22	=22	=22	=22	=22	=22	=22	=22	=22	=22	=22	=22	=22	=22
*tremolo	*tremolo	*	*	*	*	*	*	*	*	*	*	*	*	*	*
!	!LO:TX:b:t=Ob2°.	!	!	!	!	!	!	!	!	!	!	!	!	!	!
32DLLL 32AA\	32A<LLL 32F#X</	.	1AA	.	1A	.	.	.	1A	-rà	.	1A	bę-	.	.
32D 32AA\	32A< 32F#</	.	.	.	.	.	.	.	.	.	.	.	.	.	.
32D 32AA\	32Av 32F#</	.	.	.	.	.	.	.	.	.	.	.	.	.	.
32D 32AA\	32A< 32F#</	.	.	.	.	.	.	.	.	.	.	.	.	.	.
32D 32AA\	32A< 32F#</	.	.	.	.	.	.	.	.	.	.	.	.	.	.
32D 32AA\	32A< 32F#</	.	.	.	.	.	.	.	.	.	.	.	.	.	.
32D 32AA\	32A< 32F#</	.	.	.	.	.	.	.	.	.	.	.	.	.	.
32D 32AA\	32A< 32F#</	.	.	.	.	.	.	.	.	.	.	.	.	.	.
32D 32AA\	32A< 32F#</	.	.	.	.	.	.	.	.	.	.	.	.	.	.
32D 32AA\	32A< 32F#</	.	.	.	.	.	.	.	.	.	.	.	.	.	.
32D 32AA\	32A< 32F#</	.	.	.	.	.	.	.	.	.	.	.	.	.	.
32D 32AA\	32A< 32F#</	.	.	.	.	.	.	.	.	.	.	.	.	.	.
32D 32AA\	32A< 32F#</	.	.	.	.	.	.	.	.	.	.	.	.	.	.
32D 32AA\	32A< 32F#</	.	.	.	.	.	.	.	.	.	.	.	.	.	.
32D 32AA\	32A< 32F#</	.	.	.	.	.	.	.	.	.	.	.	.	.	.
32DJJJ 32AA\	32A<JJJ 32F#</	.	.	.	.	.	.	.	.	.	.	.	.	.	.
32AA\LLL	32A<LLL 32Fn< 32D< 32BBn</	.	.	.	.	.	.	.	.	.	.	.	.	.	.
32AA\	32A< 32F< 32D< 32BB</	.	.	.	.	.	.	.	.	.	.	.	.	.	.
32AA\	32A< 32F< 32D< 32BB</	.	.	.	.	.	.	.	.	.	.	.	.	.	.
32AA\	32A< 32F< 32D< 32BB</	.	.	.	.	.	.	.	.	.	.	.	.	.	.
32AA\	32A< 32F< 32D< 32BB</	.	.	.	.	.	.	.	.	.	.	.	.	.	.
32AA\	32A< 32F< 32D< 32BB</	.	.	.	.	.	.	.	.	.	.	.	.	.	.
32AA\	32A< 32F< 32D< 32BB</	.	.	.	.	.	.	.	.	.	.	.	.	.	.
32AA\	32A< 32F< 32D< 32BB</	.	.	.	.	.	.	.	.	.	.	.	.	.	.
32AA\	32A< 32F< 32D< 32BB</	.	.	.	.	.	.	.	.	.	.	.	.	.	.
32AA\	32A< 32F< 32D< 32BB</	.	.	.	.	.	.	.	.	.	.	.	.	.	.
32AA\	32A< 32F< 32D< 32BB</	.	.	.	.	.	.	.	.	.	.	.	.	.	.
32AA\	32A< 32F< 32D< 32BB</	.	.	.	.	.	.	.	.	.	.	.	.	.	.
32AA\	32A< 32F< 32D< 32BB</	.	.	.	.	.	.	.	.	.	.	.	.	.	.
32AA\	32A< 32F< 32D< 32BB</	.	.	.	.	.	.	.	.	.	.	.	.	.	.
32AA\	32A< 32F< 32D< 32BB</	.	.	.	.	.	.	.	.	.	.	.	.	.	.
32AA\JJJ	32A<JJJ 32F< 32D< 32BB</	.	.	.	.	.	.	.	.	.	.	.	.	.	.
=23	=23	=23	=23	=23	=23	=23	=23	=23	=23	=23	=23	=23	=23	=23	=23
32CnLLL 32AA\	32A<LLL 32E</	.	2AA/	.	2A/	.	.	.	2A/	mai?	.	2A/	-dzie	.	.
32C 32AA\	32A< 32E</	.	.	.	.	.	.	.	.	.	.	.	.	.	.
32C 32AA\	32A< 32E</	.	.	.	.	.	.	.	.	.	.	.	.	.	.
32C 32AA\	32A< 32E</	.	.	.	.	.	.	.	.	.	.	.	.	.	.
32C 32AA\	32A< 32E</	.	.	.	.	.	.	.	.	.	.	.	.	.	.
32C 32AA\	32A< 32E</	.	.	.	.	.	.	.	.	.	.	.	.	.	.
32C 32AA\	32A< 32E</	.	.	.	.	.	.	.	.	.	.	.	.	.	.
32C 32AA\	32A< 32E</	.	.	.	.	.	.	.	.	.	.	.	.	.	.
32C 32AA\	32A< 32E</	.	.	.	.	.	.	.	.	.	.	.	.	.	.
32C 32AA\	32A< 32E</	.	.	.	.	.	.	.	.	.	.	.	.	.	.
32C 32AA\	32A< 32E</	.	.	.	.	.	.	.	.	.	.	.	.	.	.
32C 32AA\	32A< 32E</	.	.	.	.	.	.	.	.	.	.	.	.	.	.
32C 32AA\	32A< 32E</	.	.	.	.	.	.	.	.	.	.	.	.	.	.
32C 32AA\	32A< 32E</	.	.	.	.	.	.	.	.	.	.	.	.	.	.
32C 32AA\	32A< 32E</	.	.	.	.	.	.	.	.	.	.	.	.	.	.
32CJJJ 32AA\	32A<JJJ 32E</	.	.	.	.	.	.	.	.	.	.	.	.	.	.
32C#XLLL 32AA\	32A<LLL 32E</	.	4AA/	.	4A/	.	.	.	4A/	che av-	.	4A/	Co	.	.
32C# 32AA\	32A< 32E</	.	.	.	.	.	.	.	.	.	.	.	.	.	.
32C# 32AA\	32A< 32E</	.	.	.	.	.	.	.	.	.	.	.	.	.	.
32C# 32AA\	32A< 32E</	.	.	.	.	.	.	.	.	.	.	.	.	.	.
32C# 32AA\	32A< 32E</	.	.	.	.	.	.	.	.	.	.	.	.	.	.
32C# 32AA\	32A< 32E</	.	.	.	.	.	.	.	.	.	.	.	.	.	.
32C# 32AA\	32A< 32E</	.	.	.	.	.	.	.	.	.	.	.	.	.	.
32C# 32AA\	32A< 32E</	.	.	.	.	.	.	.	.	.	.	.	.	.	.
32C# 32AA\	32A< 32E</	.	4AA/	.	4A/	.	.	.	4A/	-ver-	.	4A/	to	.	.
32C# 32AA\	32A< 32E</	.	.	.	.	.	.	.	.	.	.	.	.	.	.
32C# 32AA\	32A< 32E</	.	.	.	.	.	.	.	.	.	.	.	.	.	.
32C# 32AA\	32A< 32E</	.	.	.	.	.	.	.	.	.	.	.	.	.	.
32C# 32AA\	32A< 32E</	.	.	.	.	.	.	.	.	.	.	.	.	.	.
32C# 32AA\	32A< 32E</	.	.	.	.	.	.	.	.	.	.	.	.	.	.
32C# 32AA\	32A< 32E</	.	.	.	.	.	.	.	.	.	.	.	.	.	.
32C#JJJ 32AA\	32A<JJJ 32E</	.	.	.	.	.	.	.	.	.	.	.	.	.	.
=24	=24	=24	=24	=24	=24	=24	=24	=24	=24	=24	=24	=24	=24	=24	=24
!	!	!	!	!LO:HP:b	!	!	!	!LO:HP:b	!	!	!LO:HP:b	!	!	!	!LO:HP:b
32D<LLL 32DD/	1ryy	<[	[1F#X	<[	[>1A	.	.	<[	[>1d	-rà	<[	[>1f#X	bę-	.	<[
32D< 32DD/	.	.	.	.	.	.	.	.	.	.	.	.	.	.	.
32D< 32DD/	.	.	.	.	.	.	.	.	.	.	.	.	.	.	.
32D< 32DD/	.	.	.	.	.	.	.	.	.	.	.	.	.	.	.
32D< 32DD/	.	.	.	.	.	.	.	.	.	.	.	.	.	.	.
32D< 32DD/	.	.	.	.	.	.	.	.	.	.	.	.	.	.	.
32D< 32DD/	.	.	.	.	.	.	.	.	.	.	.	.	.	.	.
32D< 32DD/	.	.	.	.	.	.	.	.	.	.	.	.	.	.	.
32D< 32DD/	.	.	.	.	.	.	.	.	.	.	.	.	.	.	.
32D< 32DD/	.	.	.	.	.	.	.	.	.	.	.	.	.	.	.
32D< 32DD/	.	.	.	.	.	.	.	.	.	.	.	.	.	.	.
32D< 32DD/	.	.	.	.	.	.	.	.	.	.	.	.	.	.	.
32D< 32DD/	.	.	.	.	.	.	.	.	.	.	.	.	.	.	.
32D< 32DD/	.	.	.	.	.	.	.	.	.	.	.	.	.	.	.
32D< 32DD/	.	.	.	.	.	.	.	.	.	.	.	.	.	.	.
32D< 32DD/	.	.	.	.	.	.	.	.	.	.	.	.	.	.	.
32D< 32DD/	.	.	.	.	.	.	.	.	.	.	.	.	.	.	.
32D< 32DD/	.	.	.	.	.	.	.	.	.	.	.	.	.	.	.
32D< 32DD/	.	.	.	.	.	.	.	.	.	.	.	.	.	.	.
32D< 32DD/	.	.	.	.	.	.	.	.	.	.	.	.	.	.	.
32D< 32DD/	.	.	.	.	.	.	.	.	.	.	.	.	.	.	.
32D< 32DD/	.	.	.	.	.	.	.	.	.	.	.	.	.	.	.
32D< 32DD/	.	.	.	.	.	.	.	.	.	.	.	.	.	.	.
32D< 32DD/	.	.	.	.	.	.	.	.	.	.	.	.	.	.	.
32D< 32DD/	.	.	.	.	.	.	.	.	.	.	.	.	.	.	.
32D< 32DD/	.	.	.	.	.	.	.	.	.	.	.	.	.	.	.
32D< 32DD/	.	.	.	.	.	.	.	.	.	.	.	.	.	.	.
32D< 32DD/	.	.	.	.	.	.	.	.	.	.	.	.	.	.	.
32D< 32DD/	.	.	.	.	.	.	.	.	.	.	.	.	.	.	.
32D< 32DD/	.	.	.	.	.	.	.	.	.	.	.	.	.	.	.
32D< 32DD/	.	.	.	.	.	.	.	.	.	.	.	.	.	.	.
32D< 32DD/JJJ	.	.	.	.	.	.	.	.	.	.	.	.	.	.	.
!!linebreak:original
=25	=25	=25	=25	=25	=25	=25	=25	=25	=25	=25	=25	=25	=25	=25	=25
!	!	!	!	!	!LO:TX:t=P:problem:koniec łuku na dole	!	!	!	!LO:TX:t=P:problem:koniec łuku na dole	!	!	!LO:TX:t=P:problem:koniec łuku na dole	!	!	!
32D<LLL 32DD/	1ryy	>	1F#]	.	1A]	.	.	.	1d]	.	.	1f#]	.	.	.
32D< 32DD/	.	.	.	.	.	.	.	.	.	.	.	.	.	.	.
32D< 32DD/	.	.	.	.	.	.	.	.	.	.	.	.	.	.	.
32D< 32DD/	.	.	.	.	.	.	.	.	.	.	.	.	.	.	.
32D< 32DD/	.	.	.	.	.	.	.	.	.	.	.	.	.	.	.
32D< 32DD/	.	.	.	.	.	.	.	.	.	.	.	.	.	.	.
32D< 32DD/	.	.	.	.	.	.	.	.	.	.	.	.	.	.	.
32D< 32DD/	.	.	.	.	.	.	.	.	.	.	.	.	.	.	.
!	!	!	!	!LO:HP:a	!	!	!	!LO:HP:a	!	!	!LO:HP:a	!	!	!	!LO:HP:a
32D< 32DD/	.	.	.	>	.	.	.	>	.	.	>	.	.	.	>
32D< 32DD/	.	.	.	.	.	.	.	.	.	.	.	.	.	.	.
32D< 32DD/	.	.	.	.	.	.	.	.	.	.	.	.	.	.	.
32D< 32DD/	.	.	.	.	.	.	.	.	.	.	.	.	.	.	.
32D< 32DD/	.	.	.	.	.	.	.	.	.	.	.	.	.	.	.
32D< 32DD/	.	.	.	.	.	.	.	.	.	.	.	.	.	.	.
32D< 32DD/	.	.	.	.	.	.	.	.	.	.	.	.	.	.	.
32D< 32DD/	.	.	.	.	.	.	.	.	.	.	.	.	.	.	.
32D< 32DD/	.	.	.	.	.	.	.	.	.	.	.	.	.	.	.
32D< 32DD/	.	.	.	.	.	.	.	.	.	.	.	.	.	.	.
32D< 32DD/	.	.	.	.	.	.	.	.	.	.	.	.	.	.	.
32D< 32DD/	.	.	.	.	.	.	.	.	.	.	.	.	.	.	.
32D< 32DD/	.	.	.	.	.	.	.	.	.	.	.	.	.	.	.
32D< 32DD/	.	.	.	.	.	.	.	.	.	.	.	.	.	.	.
32D< 32DD/	.	.	.	.	.	.	.	.	.	.	.	.	.	.	.
32D< 32DD/	.	]	.	.	.	.	.	.	.	.	.	.	.	.	.
32D< 32DD/	.	.	.	.	.	.	.	.	.	.	.	.	.	.	.
32D< 32DD/	.	.	.	.	.	.	.	.	.	.	.	.	.	.	.
32D< 32DD/	.	.	.	.	.	.	.	.	.	.	.	.	.	.	.
32D< 32DD/	.	.	.	.	.	.	.	]	.	.	]	.	.	.	]
32D< 32DD/	.	.	.	]	.	.	.	.	.	.	.	.	.	.	.
32D< 32DD/	.	.	.	.	.	.	.	.	.	.	.	.	.	.	.
32D< 32DD/	.	.	.	.	.	.	.	.	.	.	.	.	.	.	.
32D< 32DD/JJJ	.	.	.	.	.	.	.	.	.	.	.	.	.	.	.
*Xtremolo	*	*	*	*	*	*	*	*	*	*	*	*	*	*	*
=26	=26	=26	=26	=26	=26	=26	=26	=26	=26	=26	=26	=26	=26	=26	=26
4D 4DD/	2r	.	4D\	.	4D/	.	.	.	4d/	mai?....	.	4d/	-dzie!	.	.
4r	.	.	4r	.	4r	.	.	.	4r	.	.	4r	.	.	.
!	!LO:TX:a:t=Tutti	!	!	!	!	!	!	!	!	!	!	!	!	!	!
4..D 4..DD/	4..a 4..f#X 4..d 4..A/	.	2r	.	2r	.	.	.	2r	.	.	2r	.	.	.
16D 16DD/	16a 16f# 16d 16A/	.	.	.	.	.	.	.	.	.	.	.	.	.	.
=27	=27	=27	=27	=27	=27	=27	=27	=27	=27	=27	=27	=27	=27	=27	=27
2.D 2.DD/	2.a 2.f#X 2.d 2.A/	.	1r	.	1r	.	.	.	1r	.	.	1r	.	.	.
4D 4DD/	4g 4e 4c#X 4B-/	.	.	.	.	.	.	.	.	.	.	.	.	.	.
=28	=28	=28	=28	=28	=28	=28	=28	=28	=28	=28	=28	=28	=28	=28	=28
1AA 1DD;	1f#X 1d 1A;	.	1r;	.	1r;	.	.	.	1r;	.	.	1r;	.	.	.
!	!	!	!LO:TX:t=fine:color=blue	!	!	!	!	!	!	!	!	!	!	!	!
==	==	==	==	==	==	==	==	==	==	==	==	==	==	==	==
*-	*-	*-	*-	*-	*-	*-	*-	*-	*-	*-	*-	*-	*-	*-	*-
!!!system-decoration: [(s1,s2,s3,s4)]{(s5,s6)}
!!!RDF**kern: > = above
!!!RDF**kern: < = below
!!!ENC: Katarzyna Serwa
!!!END: 2021-10-12
!!!ENC: Anastazja Marusiak
!!!END: 2021-09-21
